hw8Responsive/images/logos/headerlogo/football.svg

<svg width="25" height="25" viewBox="0 0 25 25" fill="none" xmlns="http://www.w3.org/2000/svg">
<g clip-path="url(#clip0)">
<path fill-rule="evenodd" clip-rule="evenodd" d="M0.488968 15.452C0.488968 10.4485 4.54514 6.39229 9.54868 6.39229C14.5522 6.39229 18.6084 10.4485 18.6084 15.452C18.6084 20.4556 14.5522 24.5117 9.54868 24.5117C4.54514 24.5117 0.488968 20.4556 0.488968 15.452Z" fill="#00ADEE"/>
<path fill-rule="evenodd" clip-rule="evenodd" d="M12.9485 23.8516L9.55663 21.7764V18.6334L12.3885 16.576L15.6931 17.3177L16.3516 21.4332L12.9485 23.8516Z" fill="white"/>
<path fill-rule="evenodd" clip-rule="evenodd" d="M18.5498 14.4359L15.6928 17.3179L12.3881 16.5761L11.3065 13.2468L13.3488 10.1039L17.3669 10.8752L18.5498 14.4359Z" fill="white"/>
<path fill-rule="evenodd" clip-rule="evenodd" d="M6.47071 23.9756L9.53906 21.7764V18.6335L6.70703 16.576L3.40236 17.3178L2.90321 21.6097L6.47071 23.9756Z" fill="white"/>
<path fill-rule="evenodd" clip-rule="evenodd" d="M0.550865 14.3895L3.40254 17.3179L6.70721 16.5761L7.78906 13.2468L5.74667 10.1039L1.73895 10.8567L0.550865 14.3895Z" fill="white"/>
<path fill-rule="evenodd" clip-rule="evenodd" d="M7.78854 6.56391L5.74654 10.1041L7.78893 13.2471H11.3072L13.3496 10.1041L11.3072 6.56391H7.78854Z" fill="white"/>
<path d="M1.29064 10.6634C0.649391 11.7653 0.222336 13.0062 0.0666962 14.3291C0.066124 14.3333 0.0657425 14.3375 0.0651703 14.3417C0.0228271 14.706 0.000320435 15.0764 0.000320435 15.452C0.000320435 17.9319 0.950943 20.1939 2.50658 21.8931C2.53137 21.9278 2.56055 21.9595 2.59374 21.9868C3.60426 23.0616 4.86005 23.9033 6.2713 24.4205C6.29667 24.432 6.32299 24.4415 6.34988 24.4484C7.35029 24.8051 8.4268 25 9.54832 25C10.7992 25 11.9945 24.7578 13.0903 24.3185C13.12 24.3095 13.1486 24.2977 13.1763 24.2832C14.5236 23.7278 15.7169 22.8725 16.6728 21.8012C16.7041 21.7735 16.732 21.7424 16.7554 21.7081C18.2128 20.0312 19.0963 17.8429 19.0963 15.452C19.0963 15.0936 19.0757 14.7398 19.037 14.3915C19.0366 14.3871 19.036 14.3829 19.0355 14.3787C18.9645 13.7466 18.8316 13.1332 18.6429 12.5444L23.772 7.41539C23.9627 7.22466 23.9627 6.91547 23.772 6.72474C23.6766 6.62937 23.5517 6.58169 23.4268 6.58169C23.3018 6.58169 23.1769 6.62937 23.0815 6.72474L18.2601 11.5459C18.1259 11.2478 17.9767 10.9575 17.8136 10.6766C17.7987 10.643 17.7799 10.6115 17.7579 10.5824C16.5475 8.54969 14.6043 7.00245 12.2953 6.30741L15.735 2.86789C15.9255 2.67715 15.9255 2.36797 15.735 2.17724C15.6396 2.08187 15.5145 2.03419 15.3896 2.03419C15.2646 2.03419 15.1397 2.08187 15.0443 2.17724L11.178 6.04382C10.6481 5.95226 10.1037 5.90401 9.54832 5.90401C6.07027 5.90401 3.02099 7.77378 1.35168 10.5606C1.32726 10.5923 1.30666 10.6266 1.29064 10.6634ZM5.51542 10.6441L7.25263 13.3175L6.3289 16.1604L4.13335 16.6534L3.5621 16.7816L1.06596 14.2183C1.21759 13.1708 1.55939 12.184 2.0553 11.294L5.51542 10.6441ZM11.8438 13.3175L13.5803 10.6455L17.0511 11.3115C17.5483 12.2089 17.889 13.2046 18.0366 14.2612L15.5372 16.7824L12.7675 16.1604L12.152 14.2658L11.8438 13.3175ZM16.6555 20.2385L16.2151 17.4856L18.1182 15.5659C18.0955 17.2937 17.5598 18.9001 16.6555 20.2385ZM10.9527 13.735L11.8152 16.3895L9.55728 18.0298L7.29936 16.3893L8.16187 13.735H10.9527ZM0.977837 15.5275L2.89091 17.4921L2.55273 20.3997C1.57426 19.0201 0.993668 17.3401 0.977837 15.5275ZM3.41543 21.4336L3.84763 17.7183L4.8982 17.4826L6.59898 17.1007L9.05107 18.8822V21.5256L6.401 23.4249C5.26785 22.9759 4.25294 22.2919 3.41543 21.4336ZM7.56582 23.7915L9.56892 22.3558L11.802 23.7221C11.0835 23.9182 10.328 24.0234 9.54832 24.0234C8.86606 24.0234 8.2023 23.9429 7.56582 23.7915ZM12.9871 23.3025L10.0456 21.5027V18.8822L11.7751 17.6256L12.4975 17.1007L15.2639 17.7217L15.8323 21.2746C15.0379 22.1313 14.071 22.8258 12.9871 23.3025ZM16.2959 10.1723L13.6613 9.66644L12.3195 7.34062C13.9047 7.88364 15.2818 8.87909 16.2959 10.1723ZM10.9977 7.00378L12.7775 10.0887L11.0425 12.7584H8.0541L6.31918 10.0887L8.09854 7.00397C8.57004 6.92329 9.05431 6.88076 9.54832 6.88076C10.0423 6.88057 10.5264 6.9231 10.9977 7.00378ZM6.77694 7.34062L5.43588 9.66549L2.81137 10.1585C3.82436 8.87203 5.19727 7.88174 6.77694 7.34062Z" fill="#334382"/>
<path d="M18.2753 7.41569L24.8569 0.833807C25.0477 0.643072 25.0477 0.333891 24.8569 0.143156C24.7616 0.0479794 24.6367 0.000295639 24.5117 0.000295639C24.3868 0.000295639 24.2619 0.0479794 24.1665 0.143347L17.5846 6.72503C17.3941 6.91577 17.3941 7.22495 17.5846 7.41569C17.7753 7.60623 18.0845 7.60623 18.2753 7.41569Z" fill="#334382"/>
<path d="M16.8877 1.51318C17.0161 1.51318 17.1419 1.46092 17.2327 1.37013C17.3235 1.27934 17.376 1.15346 17.376 1.02452C17.376 0.896156 17.3237 0.770653 17.2327 0.679672C17.1419 0.58831 17.0161 0.53624 16.8877 0.53624C16.7591 0.53624 16.6333 0.58831 16.5425 0.679672C16.4517 0.770462 16.3994 0.896156 16.3994 1.02452C16.3994 1.15346 16.4515 1.27934 16.5425 1.37013C16.6333 1.46092 16.7591 1.51318 16.8877 1.51318Z" fill="#334382"/>
</g>
<defs>
<clipPath id="clip0">
<rect width="25" height="25" fill="white" transform="translate(25 25) rotate(-180)"/>
</clipPath>
</defs>
</svg>

<svg width="25" height="25" fill="none" xmlns="http://www.w3.org/2000/svg"><g clip-path="url(#clip0)"><path fill-rule="evenodd" clip-rule="evenodd" d="M.489 15.452a9.06 9.06 0 1118.12 0 9.06 9.06 0 01-18.12 0z" fill="#00ADEE"/><path fill-rule="evenodd" clip-rule="evenodd" d="M12.948 23.852l-3.391-2.076v-3.143l2.832-2.057 3.304.742.659 4.115-3.404 2.419z" fill="#fff"/><path fill-rule="evenodd" clip-rule="evenodd" d="M18.55 14.436l-2.857 2.882-3.305-.742-1.082-3.33 2.043-3.142 4.018.771 1.183 3.56zM6.47 23.976l3.07-2.2v-3.142l-2.833-2.058-3.305.742-.499 4.292 3.568 2.366z" fill="#fff"/><path fill-rule="evenodd" clip-rule="evenodd" d="M.55 14.39l2.853 2.928 3.304-.742 1.082-3.33-2.042-3.142-4.008.753L.551 14.39z" fill="#fff"/><path fill-rule="evenodd" clip-rule="evenodd" d="M7.789 6.564l-2.042 3.54 2.042 3.143h3.518l2.043-3.143-2.043-3.54H7.79z" fill="#fff"/><path d="M1.29 10.663A9.481 9.481 0 00.068 14.33l-.002.013a9.511 9.511 0 002.441 7.551.49.49 0 00.088.094 9.576 9.576 0 003.756 2.461c1 .357 2.077.552 3.198.552a9.498 9.498 0 003.628-.717 9.59 9.59 0 003.497-2.482.504.504 0 00.082-.093 9.508 9.508 0 002.282-7.316l-.002-.013a9.47 9.47 0 00-.392-1.835l5.129-5.129a.488.488 0 00-.69-.69l-4.822 4.82a9.49 9.49 0 00-.446-.868.477.477 0 00-.056-.095 9.592 9.592 0 00-5.463-4.275l3.44-3.44a.489.489 0 00-.69-.69l-3.867 3.867a9.552 9.552 0 00-9.826 4.517.487.487 0 00-.061.102zm4.225-.019l1.738 2.674-.924 2.842-2.196.493-.57.129-2.497-2.564a8.505 8.505 0 01.99-2.924l3.46-.65zm6.329 2.674l1.736-2.672 3.471.665a8.51 8.51 0 01.986 2.95l-2.5 2.521-2.77-.622-.615-1.894-.308-.948zm4.812 6.92l-.44-2.752 1.902-1.92a8.521 8.521 0 01-1.462 4.672zm-5.703-6.503l.862 2.655-2.258 1.64L7.3 16.39l.863-2.655h2.79zM.978 15.528l1.913 1.964-.338 2.908a8.525 8.525 0 01-1.575-4.872zm2.437 5.906l.433-3.716 1.05-.235L6.6 17.1l2.452 1.781v2.644l-2.65 1.899a8.603 8.603 0 01-2.986-1.991zm4.15 2.357l2.004-1.435 2.233 1.366a8.548 8.548 0 01-4.236.07zm5.422-.489l-2.941-1.8v-2.62l1.73-1.256.722-.525 2.766.62.568 3.554a8.612 8.612 0 01-2.845 2.027zm3.309-13.13l-2.635-.506-1.341-2.325a8.606 8.606 0 013.976 2.831zm-5.298-3.168l1.78 3.085-1.736 2.67H8.055l-1.735-2.67L8.1 7.004a8.59 8.59 0 012.899 0zm-4.221.337L5.436 9.665l-2.625.494A8.605 8.605 0 016.777 7.34z" fill="#334382"/><path d="M18.275 7.416L24.857.834a.488.488 0 10-.69-.69l-6.582 6.581a.489.489 0 00.69.69zM16.888 1.513a.492.492 0 00.488-.488.491.491 0 00-.488-.489.49.49 0 000 .977z" fill="#334382"/></g><defs><clipPath id="clip0"><path fill="#fff" transform="rotate(-180 12.5 12.5)" d="M0 0h25v25H0z"/></clipPath></defs></svg>
